!!!OTL: 672. Wiedererkennen des einstigen Geliebten. / (Die gebrochene Treue.)
!!!ARE: Europa, Mitteleuropa, Deutschland, Rheinland
!!!SCT: E0672
!!!YEM: Copyright 1995, estate of Helmut Schaffrath.
**kern	**text
*ICvox	*
*M4/4	*
*met(c)	*
*k[f#]	*
*G:	*
!LO:TX:a:t=iemlich langsam.	!
!LO:TX:a:t=Aus dem Dillkreis mehrfach. 1880-90.	!
{8d	Mü-
8d	-de
=1	=1
4.b	kehrt
8a	ein
8g	Wan-
8f#	-de-
8g	-rer
8b/	ʒu-
=2	=2
2d	-rück,
4r}	.
{8d	nach
8f#	der
=3	=3
4.a	Hei-
8g	-math,
8f#	ſei-
8a	-ner
8dd	Lie-
8cc	-be
=4	=4
2b	Glück.
4r}	.
{8g	Doch
8a	ʒu-
=5	=5
4.b	-vor
8dd	tritt
8cc	er
8b	ins
8a	Gärt-
8g	-ner-
=6	=6
2e	-haus,
4r}	.
{8g	und
8e	kauft_für
=7	=7
4.d	ſie
8g	noch
8f#	ei-
8a	-nen
4.cc	Blumen-
16b	.
=8	=8
2g	-ſtrauß,
4r}	.
{8g	Doch
8a	ʒu-
=9	=9
4.b	-vor
8dd	tritt
8cc	er
8b	ins
8a	Gärt-
8g	-ner-
=10	=10
2e	-haus,
4r}	.
{8g	und
8e	kauft_für
=11	=11
4.d	ſie
8g	noch
8f#	ei-
8a	-nen
4.cc	Blumen-
16b	.
=12	=12
2g	-ſtrauß.
4r}	.
==	==
!!!AGN: Liebes - Lied
!!!ONB: ESAC (Essen Associative Code) Database: ERK2
!!!AMT: simple quadruple
!!!AIN: vox
!!!EED: Helmut Schaffrath
!!!EEV: 1.0
!!!GTL: Liebeslieder [Neuere (aus dem 18. bis 19. Jahrh.) - Liebeslust]
!!!URL-scan: https://rosdok.uni-rostock.de/mcrviewer/recordIdentifier/rosdok_ppn745177662/iview2/phys_0473.iview2?x=192.47699748739979&y=285.4957719508093&scale=0.7029437510502773&rotation=0&layout=singlePageLayout
!!!ENC: Anna Maria Matuszewska
!!!EEV: 2024/12/12
*-	*-
